X:1
T:The Healing Touch
T:The Healing Touch
T:William James Kirkpatrick
T:Mrs. E. C. Ellsworth, 1885
T:Public Domain Courtesy of the Cyber Hymnal™
T:Public Domain Courtesy of the Cyber Hymnal™
C:William James Kirkpatrick
Z:Public Domain
Z:Courtesy of the Cyber Hymnal™
%%score ( 1 2 ) ( 3 4 )
L:1/8
Q:1/4=103
M:6/8
K:D
V:1 treble 
V:2 treble 
V:3 bass 
V:4 bass 
V:1
 D | [DF]2 [DF] [DF]2 [CE] | [DF]2 [EG] [FA]2 [GB] | [FA]2 [DF] (FE)[A,D] | [CE]3- [CE]2 [CA] | %5
w: 1.~An|ea- ger, rest- less|crowd drew near, And|round the Sav- * ior|pressed; * But|
w: 2.~The|mul- ti- tude, with|cur- ious eyes, Just|gazed up- on * His|face; * But|
w: 3.~Oh,|near to Christ the|ma- ny came, In|that most fa- * vored|hour! * But|
w: 4.~Of|all who throng His|courts to- day, Who|shall re- ceive * His|Word? * Who|
 [DF]2 [DF] [DF]2 [CE] | [DF]2 [CG] [DA]2 [DA] | (Bc)[Fd] [Ec]2 [DB] | [CA]3- [CA]2 z || %9
w: one, with warm and|lov- ing faith, His|heal- * ing power con-|fessed. *|
w: she glanced up with|hope, and love, To|feel * His sav- ing|grace. *|
w: one stretched out the|hand of faith, And|touched * His heal- ing|power. *|
w: shall reach forth with|faith sin- cere, To|touch * the heal- ing|Lord? *|
"^Refrain" [Fd]2 [Fd] [Fd]2 [Fd] | [^Ed][Ec][EB] [FA]2 [DF] | [GB][GB][FA] [Fd]2 [DF] | %12
w: She had touched the|hem of His gar- ment,|Trust- ing with all her|
w: |||
w: [Last verse] * *|||
w: Come and touch the|hem of His gar- ment,|Trust- ing with all your|
 [CE]3- [CE]2 [CA] | [DF]2 [DF] [DF][A,E][A,D] | [FA]2 [FA] [FA][^E^G][FA] | [GB]2 [GB] (cB)[Gc] | %16
w: soul; * For|ev- ery touch of the|lov- ing Je- sus Can|make the wound- * ed|
w: ||||
w: ||||
w: soul; * For|ev- ery touch of the|lov- ing Je- sus Can|make the wound- * ed|
 [Fd]3- [Fd]2 |] %17
w: whole. *|
w: |
w: |
w: whole. *|
V:2
 D | x6 | x6 | x3 A,2 x | x6 | x6 | x6 | F2 x4 | x6 || x6 | x6 | x6 | x6 | x6 | x6 | x3 G2 x | %16
 x5 |] %17
V:3
 [D,F,] | [D,A,]2 [D,A,] [D,A,]2 [G,A,] | [F,A,]2 [E,A,] [D,A,]2 [D,D] | %3
 [D,D]2 [D,A,] (A,G,)[D,F,] | [A,,A,]3- [A,,A,]2 [A,,A,] | [D,A,]2 [D,A,] [D,A,]2 [A,,A,] | %6
 [D,A,]2 [E,A,] [F,A,]2 [F,A,] | [D,A,]2 [D,A,] [E,A,]2 [E,^G,] | [A,,A,]3- [A,,A,]2 z || %9
 [D,A,]2 [D,A,] [D,A,]2 [D,A,] | [D,B,][D,A,][D,^G,] [D,A,]2 [D,A,] | %11
 [D,D][D,D][D,D] [D,A,]2 [D,A,] | [A,,A,]3- [A,,A,]2 [A,,A,] | [D,A,]2 [D,A,] [D,A,][D,G,][D,F,] | %14
 [D,D]2 [D,D] [D,D][D,D][D,D] | [G,D]2 [G,D] A,2 [A,,A,] | [D,A,]3- [D,A,]2 |] %17
V:4
 x | x6 | x6 | x3 D,2 x | x6 | x6 | x6 | x6 | x6 || x6 | x6 | x6 | x6 | x6 | x6 | x3 A,2 x | x5 |] %17

